X:1
T:UTILE
T:UTILE
T:Julien CLERC
T:Etienne Roda-gil
C:Juien CLERC
Z:Etienne Roda-gil
%%score { 1 | ( 2 3 ) }
L:1/8
M:3/4
K:G
V:1 treble nm="Piano" snm="Pno."
V:2 bass 
V:3 bass 
V:1
 z6[Q:1/4=124] | z6 | z6 |S z A AA AB | BA AA AB | B6 | z A AA AB | BA AA AB | B6 | %9
 z !2!E !3!F!1!G AB | c6 | z !1!F !2!FG BB | !1!G6 | z2 GG GG | !2!A6 | z !2
!A AA !5
!d!5!d | %16
 !3
!B6 | z6 |: z A AA AB | BA AA AB | B6 | z A AA AB | BA AA AB | B6 | z E FG AB | c6 | %26
 z F FF BB | G6 | z2 GG GG | G6 | z F FF AG | E6!dacoda! || !2
!E6 | F4- F z | F6 | G4- G z | G6 | %37
 !1!!5![CA-]4 A z | !1!!3![DA]2 B2 [Ec]2 | !1!!4![DB]2 z2 G2 | [DE-]4 E z |1 !5!A4 F2 | ^D2 E2 F2 | %43
 E4- z2 | E2 z4 :|2 [A,CA]4 !2!c2 || B2 ^c2 !3!^d2 | !1!e6 | !2!f6 | !1!f6 | !2!g6 | !1!g6 | a6 | %53
 a2 b2 c'2 | b4 !1!g2 | !2!e6 | !5!a4 f2 | ^d2 e2 f2 | e6- | e6!D.S.! ||O z A AA AB | BA AA AB | %62
 B6 |"^dim." z6 | !fermata!z6 |] %65
V:2
 z2 [F,A,]2 [G,B,]2 | z2 [F,A,]2 [G,B,]2 | z2 [F,A,]2 [G,B,]2 | z2 [F,A,]2 [G,B,]2 | %4
 z2 [F,A,]2 [G,B,]2 | z2 [F,A,]2 [F,B,]2 | z2 [F,A,]2 [F,B,]2 | z2 [F,A,]2 [F,B,]2 | %8
 z2 [E,A,]2 [E,B,]2 | z2 [E,A,]2 [E,B,]2 | z2 !4!!2!!1![E,A,C]2 [E,A,C]2 | %11
 z2 !4!!2!!1![E,A,B,]2 !5!^D,2 | E,,2 !3!!2!!1![F,G,B,]2 !4!E,2 | z2 [D,G,B,]2 [D,G,B,]2 | %14
 z2 !5!!3!!1![G,CE]2 [G,CE]2 | z2 [G,A,D]2 F,2 | z2 [D,A,B,]2 G,2 | z2 [E,A,B,]2 ^D,2 |: %18
 z2 [F,A,]2 [G,B,]2 | z2 [F,A,]2 [G,B,]2 | z2 [F,A,]2 [F,B,]2 | z2 [F,A,]2 [F,B,]2 | %22
 z2 [F,A,]2 [F,B,]2 | z2 [E,A,]2 [E,B,]2 | z2 [E,A,]2 [E,B,]2 | z2 [E,A,C]2 [E,A,C]2 | %26
 z2 [E,A,B,]2 ^D,2 | z2 [F,G,B,]2 E,2 | z2 [E,G,B,]4 | z2 [E,G,B,]2 [E,G,B,]2 | z2 [E,F,A,]2 ^D,2 | %31
 z2 [E,G,B,]4 || z2 !5!!3!!1![E,G,C]2 [E,G,B,]2 | z2 [^D,F,C]2 [D,F,B,]2 | z2 [^D,F,C]2 [D,F,B,]2 | %35
 z2 [E,G,C]2 [E,G,B,]2 | z2 [E,G,D]4 | A,6 | D,,2 E,,2 F,,2 | G,,2 z4 | !5!C,2 !1!C2 !2!B,2 |1 %41
 F,,2 [F,A,C]2 z2 | B,,2 ^C,2 ^D,2 | z2 [E,F,A,]2 [E,G,B,]2 | z2 [E,F,A,]2 [E,G,B,]2 :|2 F,6 || %46
 B,,2 ^C,2 ^D,2 | z2 [E,G,C]2 [E,G,B,]2 | z2 [^D,F,C]2 [D,F,B,]2 | z2 [^D,F,C]2 [D,F,B,]2 | %50
 z2 [E,G,C]2 [E,G,B,]2 | z2 [E,G,D]4 | [E,A,]6 | !5!D,,2 !4!E,,2 !3!F,,2 | !2!G,,6 | !1!C,6 | %56
 F,,6 | B,,2 ^C,2 ^D,2 | z2 [E,F,A,]2 [E,G,B,]2 | z2 [E,F,A,]2 [E,G,B,]2 || z2 [F,A,]2 [G,B,]2 | %61
 z2 [F,A,]2 [G,B,]2 | z2 [F,A,]2 [G,B,]2 | z2 [F,A,]2 [G,B,]2 | !fermata!z6 |] %65
V:3
 E,,6 | E,,6 | E,,6 | E,,6 | E,,6 | D,,6 | D,,6 | D,,6 | C,,6 | C,,6 | F,,6 | B,,,6 | x6 | E,,6 | %14
 A,,6 | D,,6 | G,,6 | B,,6 |: E,,6 | E,,6 | D,,6 | D,,6 | D,,6 | C,,6 | C,,6 | F,,6 | B,,,6 | %27
 E,,6 | D,,6 | C,,6 | B,,,6 | E,,6 || E,,6 | ^D,,6 | ^D,,6 | E,,6 | E,,6 | [A,,E,]6 | x6 | x6 | %40
 x6 |1 x6 | x6 | E,6 | E,,6 :|2 F,,6 || x6 | E,,6 | ^D,,6 | ^D,,6 | E,,6 | E,,6 | A,,6 | x6 | x6 | %55
 x6 | x6 | x6 | E,6 | E,,6 || E,,6 | E,,6 | E,,6 | E,,6 | x6 |] %65

